img/address-card-solid.svg

<svg aria-hidden="true" focusable="false" data-prefix="fas" data-icon="address-card" class="svg-inline--fa fa-address-card fa-w-18" role="img" xmlns="http://www.w3.org/2000/svg" viewBox="0 0 576 512"><path fill="currentColor" d="M528 32H48C21.5 32 0 53.5 0 80v352c0 26.5 21.5 48 48 48h480c26.5 0 48-21.5 48-48V80c0-26.5-21.5-48-48-48zm-352 96c35.3 0 64 28.7 64 64s-28.7 64-64 64-64-28.7-64-64 28.7-64 64-64zm112 236.8c0 10.6-10 19.2-22.4 19.2H86.4C74 384 64 375.4 64 364.8v-19.2c0-31.8 30.1-57.6 67.2-57.6h5c12.3 5.1 25.7 8 39.8 8s27.6-2.9 39.8-8h5c37.1 0 67.2 25.8 67.2 57.6v19.2zM512 312c0 4.4-3.6 8-8 8H360c-4.4 0-8-3.6-8-8v-16c0-4.4 3.6-8 8-8h144c4.4 0 8 3.6 8 8v16zm0-64c0 4.4-3.6 8-8 8H360c-4.4 0-8-3.6-8-8v-16c0-4.4 3.6-8 8-8h144c4.4 0 8 3.6 8 8v16zm0-64c0 4.4-3.6 8-8 8H360c-4.4 0-8-3.6-8-8v-16c0-4.4 3.6-8 8-8h144c4.4 0 8 3.6 8 8v16z"></path></svg>

<svg id="Calque_1" data-name="Calque 1" xmlns="http://www.w3.org/2000/svg" viewBox="0 0 576 448"><defs><style>.cls-1{fill:#fff;}</style></defs><path class="cls-1" d="M528,32H48A48,48,0,0,0,0,80V432a48,48,0,0,0,48,48H528a48,48,0,0,0,48-48V80A48,48,0,0,0,528,32ZM176,128a64,64,0,1,1-64,64A64.06,64.06,0,0,1,176,128ZM288,364.8c0,10.6-10,19.2-22.4,19.2H86.4C74,384,64,375.4,64,364.8V345.6c0-31.8,30.1-57.6,67.2-57.6h5a103,103,0,0,0,79.6,0h5c37.1,0,67.2,25.8,67.2,57.6ZM512,312a8,8,0,0,1-8,8H360a8,8,0,0,1-8-8V296a8,8,0,0,1,8-8H504a8,8,0,0,1,8,8Zm0-64a8,8,0,0,1-8,8H360a8,8,0,0,1-8-8V232a8,8,0,0,1,8-8H504a8,8,0,0,1,8,8Zm0-64a8,8,0,0,1-8,8H360a8,8,0,0,1-8-8V168a8,8,0,0,1,8-8H504a8,8,0,0,1,8,8Z" transform="translate(0 -32)"/></svg>
